!!!ONB: MCCC : IJH0468_02 : Extracted Monophonic Melody
!!!COM: Haydn, Joseph
!!!OPR: String Quartet in G minor
!!!OMV: 2
!!!SCT: Hob.III:74 ; Op.74 No.3
!!!ODT: 1793///
**kern
*thru
*k[f#c#g#d#]
*E:
*clefF
*M4/4
2g#
8f#
8r
8e
8r
=1
2.a
4r
=2
2g#
8f#
8r
8e
8r
=3
2.cc#
4r
=4
2b
4a#
4b
=5
2.ee
4dd#
=6
2gg#
4ff##
4gg#
=7
2.bb
4ee#
=8
2ff#[
16ff#]
16ee
16gg#
16dd#
16ff#
16cc#
16ee
16a#
=9
2cc#
4b
4a
=10
2g#
4f#
4e
=11
2g
4f#
4e
=12
4d#
4e
4a
4g#
=13
4f#
16r
16B
16A#
16B
16c#
16d#
16e
16f#
16g#
32a
32b
32cc#
32dd#
32ee
32ff#
=14
2gg#
8ff#
8r
8ee
8r
=15
2.aa
4r
=16
2gg#
8ff#
8r
8ee
8r
=17
2.ccc#
4r
=18
2ff#
4gg#
4aa
=19
2gg#
4ff#
4ccc#
=20
2ee[
16ee]
16dd#
16ff#
16ee
16gg#
16ff#
16aa
16dd#
=21
2ff#
4ee
4r
=22
2e
4f#
4g
=23
3..a[
24a]
8g
8f#
8e
=24
2d#
4e
4f#
=25
2g
2g
=26
2g
4f#
4g
=27
2a
2cc
=28
2g[
16g]
16f#
16f
16e
16f
16d
16c
16B
=29
4c
2.r
=30
1r
=31
2a
4b
4cc
=32
2dd
2r
=33
2g
4a
4b
=34
2cc
2b
=35
1a#
=36
2.b
4a
=37
2g#
8f#
8r
8e
8r
=38
4a
8r
8B
16A#
16B
16c#
16d#
16e
16e#
16f#
16f##
=39
4..g#
48b
48a
48g#
8.f#
48a
48g#
48f#
8.e
48g#
48f#
48e
=40
4cc#
32b
32a
32g#
32f#
32e
32d#
32c#
32B
8A
4.r
=41
2b
4a#
4b
=42
4ee
24A#
24c#
24e
24f#
24a#
24cc#
4ee
4dd#
=43
2gg#
4ff##
4gg#
=44
4bb
32G
32B
32d
32f#
32g
32b
32dd
32gg
4bb
4ee#
=45
2ff#[
16ff#]
16ee
16gg#
16dd#
16ff#
16cc#
16ee
16a#
=46
2cc#
4b
4a
=47
2g#
4f#
4e
=48
32g
32g
32g
32g
32g
32g
32g
32g
32g
32g
32g
32g
32g
32g
32g
32g
32f#
32f#
32f#
32f#
32f#
32f#
32f#
32f#
32e
32e
32e
32e
32e
32e
32e
32e
=49
32d#
32d#
32d#
32d#
32d#
32d#
32d#
32d#
32e
32e
32e
32e
32e
32e
32e
32e
32a
32a
32a
32a
32a
32a
32a
32a
32g#
32g#
32g#
32g#
32g#
32g#
32g#
32g#
=50
16f#
16B
16A#
16B
16c#
16d#
16e
16f#
16g#
16a
16b
16cc#
16dd#
16ee
16ff#
16ff##
=51
4..gg#
32aa
32gg#
4ff#
4ee
=52
32a#
32b
32dd#
32ff#
48aa
48gg#
48bb
48aa
48ccc#
48bb
8aa
8r
8r
8dd#
8ee
8ff#
=53
4..gg#
48bb
48aa
48gg#
8.ff#
48aa
48gg#
48ff#
8.ee
16ee
=54
16ee
16eee
16ccc#
16aa#
16gg
16ee
16cc#
16a#
16g
16e
16c#
16B-
8G
8r
=55
4.ff#
8ff#
8gg#
8gg#
8aa
8aa
=56
4..gg#
48bb
48aa
48gg#
4.ccc#
32bb
32aa
32gg#
32ff#
=57
16ee
16eee
16ddd#
16ccc#
16bb
16aa
16gg#
16ff#
16ee
16dd#
16cc#
16b
16a
16g#
16a
16d#
=58
2f#
8e
4.r
=59
2B
4A
4G#
=60
2c#
2r
=61
2a
4g#
4f#
=62
4e
4r
4B
8.r
16B
=63
1B
==
*-
